src/img/icons/icon-complite.svg

<svg width="20" height="21" viewBox="0 0 20 21" fill="none" xmlns="http://www.w3.org/2000/svg">
<path fill-rule="evenodd" clip-rule="evenodd" d="M9.99996 0.550599C12.671 0.550599 15.1822 1.59065 17.0709 3.47924C18.9597 5.36808 19.9999 7.87922 19.9999 10.5504C19.9999 13.2213 18.9597 15.7324 17.0709 17.6215C15.1822 19.5101 12.671 20.5504 9.99996 20.5504C7.3288 20.5504 4.8175 19.5101 2.92878 17.6215C1.04004 15.7324 -0.00012 13.2213 -0.00012 10.5504C-0.00012 7.87922 1.04004 5.36808 2.92878 3.47924C4.8175 1.59065 7.3288 0.550599 9.99996 0.550599ZM1.17176 10.5504C1.17176 15.4181 5.1321 19.3784 9.99996 19.3784C14.8677 19.3784 18.828 15.4181 18.828 10.5504C18.828 5.68262 14.8677 1.72217 9.99996 1.72217C5.1321 1.72217 1.17176 5.68262 1.17176 10.5504ZM8.77464 12.5159L13.9489 7.34179C14.1776 7.11285 14.5486 7.11285 14.7774 7.34179C15.0063 7.57073 15.0063 7.94182 14.7774 8.17028L9.18892 13.759C9.0746 13.8733 8.92456 13.9306 8.77464 13.9306C8.62472 13.9306 8.4748 13.8733 8.36036 13.759L5.22228 10.6207C4.99352 10.3923 4.99352 10.0212 5.22228 9.79224C5.45116 9.5633 5.82218 9.5633 6.05094 9.79224L8.77464 12.5159Z" fill="#FE3E57"/>
</svg>

<svg width="20" height="21" fill="none" xmlns="http://www.w3.org/2000/svg"><path fill-rule="evenodd" clip-rule="evenodd" d="M10 .55a9.935 9.935 0 017.07 2.93A9.935 9.935 0 0120 10.55a9.935 9.935 0 01-2.93 7.072A9.935 9.935 0 0110 20.55a9.935 9.935 0 01-7.071-2.928 9.936 9.936 0 01-2.93-7.072 9.935 9.935 0 012.93-7.07A9.935 9.935 0 0110 .55zm-8.828 10c0 4.868 3.96 8.828 8.828 8.828 4.868 0 8.828-3.96 8.828-8.828 0-4.867-3.96-8.828-8.828-8.828-4.868 0-8.828 3.96-8.828 8.828zm7.603 1.966l5.174-5.174a.586.586 0 11.828.828L9.19 13.76a.584.584 0 01-.829 0l-3.138-3.138a.586.586 0 11.829-.829l2.724 2.724z" fill="#FE3E57"/></svg>
